img/svg/slack-icon.svg

<svg width="161" height="74" viewBox="0 0 161 74" fill="none" xmlns="http://www.w3.org/2000/svg">
<path d="M57.5738 49.3907L59.1662 45.6969C60.8857 46.98 63.1661 47.646 65.4213 47.646C67.0917 47.646 68.1382 47.0051 68.1382 46.0293C68.113 43.3151 58.1637 45.4411 58.0908 38.6218C58.0656 35.1626 61.141 32.4923 65.4993 32.4923C68.0891 32.4923 70.6777 33.1345 72.5255 34.5994L71.0375 38.3672C69.347 37.2885 67.2439 36.5197 65.244 36.5197C63.883 36.5197 62.9887 37.1618 62.9887 37.9796C63.0139 40.6449 73.0361 39.1849 73.1393 45.6969C73.1393 49.2339 70.1432 51.7223 65.8339 51.7223C62.6793 51.7223 59.78 50.9785 57.5738 49.3894V49.3907ZM118.578 44.3637C118.081 45.2475 117.304 45.9417 116.368 46.3374C115.433 46.7331 114.392 46.8079 113.409 46.55C112.426 46.2921 111.557 45.7162 110.938 44.9125C110.32 44.1089 109.986 43.1231 109.989 42.1098C109.988 41.5077 110.105 40.9111 110.335 40.3543C110.565 39.7975 110.903 39.2915 111.329 38.865C111.756 38.4386 112.262 38.1003 112.82 37.8693C113.377 37.6384 113.975 37.5195 114.579 37.5193C116.294 37.5193 117.783 38.47 118.579 39.8522L122.961 37.4165C121.32 34.4966 118.165 32.4923 114.579 32.4923C109.267 32.4923 104.963 36.8044 104.963 42.1098C104.963 47.4152 109.267 51.7223 114.579 51.7223C116.291 51.726 117.972 51.2708 119.446 50.4046C120.921 49.5383 122.135 48.2927 122.961 46.7981L118.578 44.3649V44.3637ZM75.3455 24.5204H80.8346V51.3648H75.3455V24.5216V24.5204ZM125.118 24.5204V51.3648H130.601V43.3151L137.117 51.3648H144.143L135.859 41.8013L143.528 32.8799H136.807L130.601 40.2874V24.5216H125.117L125.118 24.5204ZM97.1408 44.4176C96.3459 45.7258 94.7045 46.6953 92.8567 46.6953C92.2534 46.695 91.6561 46.5761 91.0989 46.3454C90.5416 46.1147 90.0355 45.7768 89.6094 45.3509C89.1832 44.925 88.8454 44.4196 88.6153 43.8635C88.3852 43.3073 88.2672 42.7114 88.2682 42.1098C88.2671 41.5079 88.3849 40.9117 88.6149 40.3552C88.8449 39.7987 89.1826 39.2929 89.6087 38.8666C90.0348 38.4403 90.541 38.1019 91.0983 37.8707C91.6556 37.6395 92.2531 37.5201 92.8567 37.5193C94.7045 37.5193 96.3459 38.5428 97.1408 39.876V44.4176ZM97.1408 32.8786V35.061C96.2428 33.5459 94.0114 32.4923 91.6782 32.4923C86.8582 32.4923 83.0647 36.7505 83.0647 42.081C83.0647 47.4165 86.8582 51.7223 91.6782 51.7223C94.0114 51.7223 96.2428 50.6687 97.1408 49.1599V51.341H102.63V32.8786H97.1408ZM23.6532 44.3875C23.6532 46.2601 22.14 47.7739 20.2671 47.7739C19.8218 47.7736 19.3808 47.6857 18.9696 47.5153C18.5583 47.3448 18.1848 47.0952 17.8705 46.7807C17.5561 46.4661 17.307 46.0928 17.1374 45.6822C16.9679 45.2716 16.8812 44.8316 16.8823 44.3875C16.8815 43.9438 16.9685 43.5043 17.1382 43.0942C17.308 42.684 17.5572 42.3113 17.8716 41.9973C18.186 41.6833 18.5594 41.4343 18.9705 41.2644C19.3815 41.0945 19.8222 41.0072 20.2671 41.0073H23.6532V44.3888V44.3875ZM25.3424 44.3875C25.3416 43.9437 25.4286 43.5041 25.5984 43.0939C25.7682 42.6836 26.0175 42.3109 26.3321 41.9969C26.6466 41.6829 27.0202 41.4338 27.4314 41.264C27.8426 41.0942 28.2834 41.007 28.7284 41.0073C29.1735 41.0072 29.6142 41.0946 30.0254 41.2645C30.4365 41.4345 30.81 41.6836 31.1244 41.9977C31.4388 42.3119 31.688 42.6847 31.8577 43.095C32.0274 43.5053 32.1142 43.945 32.1132 44.3888V52.8498C32.1142 53.2938 32.0274 53.7336 31.8578 54.1441C31.6881 54.5547 31.439 54.9278 31.1246 55.2422C30.8103 55.5566 30.4368 55.8061 30.0257 55.9765C29.6145 56.1468 29.1737 56.2347 28.7284 56.235C28.283 56.2349 27.8419 56.1471 27.4305 55.9767C27.0191 55.8064 26.6455 55.5568 26.3309 55.2422C26.0164 54.9276 25.7672 54.5543 25.5976 54.1436C25.428 53.7328 25.3412 53.2928 25.3424 52.8486V44.3888V44.3875ZM28.7284 30.8029C28.283 30.8027 27.8419 30.7149 27.4305 30.5446C27.0191 30.3742 26.6455 30.1246 26.3309 29.81C26.0164 29.4955 25.7672 29.1221 25.5976 28.7114C25.428 28.3007 25.3412 27.8606 25.3424 27.4164C25.3416 26.9726 25.4286 26.533 25.5984 26.1228C25.7682 25.7126 26.0175 25.3398 26.3321 25.0258C26.6466 24.7118 27.0202 24.4628 27.4314 24.293C27.8426 24.1232 28.2834 24.0359 28.7284 24.0363C29.1734 24.0361 29.614 24.1234 30.0251 24.2933C30.4361 24.4632 30.8096 24.7122 31.124 25.0262C31.4384 25.3402 31.6876 25.7129 31.8573 26.1231C32.0271 26.5332 32.114 26.9727 32.1132 27.4164V30.8029H28.7284ZM28.7284 32.5224C29.1734 32.5223 29.614 32.6096 30.0251 32.7795C30.4361 32.9494 30.8096 33.1984 31.124 33.5124C31.4384 33.8264 31.6876 34.1991 31.8573 34.6092C32.0271 35.0194 32.114 35.4589 32.1132 35.9026C32.1132 37.7739 30.6 39.289 28.7284 39.289H20.2432C19.7978 39.2889 19.3567 39.2011 18.9453 39.0307C18.5339 38.8604 18.1603 38.6108 17.8457 38.2962C17.5312 37.9816 17.282 37.6083 17.1124 37.1976C16.9427 36.7868 16.856 36.3468 16.8572 35.9026C16.8564 35.4588 16.9434 35.0192 17.1132 34.609C17.283 34.1987 17.5323 33.8259 17.8469 33.5119C18.1614 33.1979 18.535 32.9489 18.9462 32.7791C19.3574 32.6093 19.7981 32.5221 20.2432 32.5224H28.7284ZM42.2939 35.9026C42.2931 35.4589 42.3801 35.0194 42.5498 34.6092C42.7195 34.1991 42.9688 33.8264 43.2832 33.5124C43.5976 33.1984 43.971 32.9494 44.382 32.7795C44.7931 32.6096 45.2337 32.5223 45.6787 32.5224C46.1238 32.5221 46.5645 32.6093 46.9757 32.7791C47.387 32.9489 47.7605 33.1979 48.0751 33.5119C48.3896 33.8259 48.6389 34.1987 48.8087 34.609C48.9786 35.0192 49.0656 35.4588 49.0647 35.9026C49.0647 37.7739 47.5516 39.289 45.6787 39.289H42.2939V35.9026ZM40.6034 35.9026C40.6034 37.7739 39.0903 39.289 37.2187 39.289C36.7732 39.2889 36.3321 39.2011 35.9207 39.0307C35.5094 38.8604 35.1357 38.6108 34.8212 38.2962C34.5067 37.9816 34.2574 37.6083 34.0878 37.1976C33.9182 36.7868 33.8315 36.3468 33.8326 35.9026V27.4164C33.8318 26.9726 33.9188 26.533 34.0886 26.1228C34.2584 25.7126 34.5078 25.3398 34.8223 25.0258C35.1368 24.7118 35.5104 24.4628 35.9216 24.293C36.3328 24.1232 36.7736 24.0359 37.2187 24.0363C37.6636 24.0361 38.1043 24.1234 38.5153 24.2933C38.9264 24.4632 39.2998 24.7122 39.6142 25.0262C39.9286 25.3402 40.1778 25.7129 40.3476 26.1231C40.5173 26.5332 40.6043 26.9727 40.6034 27.4164V35.9026ZM37.2187 49.4684C37.6637 49.4683 38.1045 49.5557 38.5156 49.7256C38.9268 49.8956 39.3002 50.1447 39.6147 50.4588C39.9291 50.7729 40.1783 51.1458 40.3479 51.5561C40.5176 51.9664 40.6044 52.406 40.6034 52.8498C40.6044 53.2938 40.5176 53.7336 40.348 54.1441C40.1784 54.5547 39.9292 54.9278 39.6149 55.2422C39.3005 55.5566 38.9271 55.8061 38.5159 55.9765C38.1047 56.1468 37.6639 56.2347 37.2187 56.235C36.7732 56.2349 36.3321 56.1471 35.9207 55.9767C35.5094 55.8064 35.1357 55.5568 34.8212 55.2422C34.5067 54.9276 34.2574 54.5543 34.0878 54.1436C33.9182 53.7328 33.8315 53.2928 33.8326 52.8486V49.4684H37.2187ZM37.2187 47.7739C36.7732 47.7738 36.3321 47.686 35.9207 47.5156C35.5094 47.3453 35.1357 47.0957 34.8212 46.7811C34.5067 46.4665 34.2574 46.0932 34.0878 45.6825C33.9182 45.2718 33.8315 44.8317 33.8326 44.3875C33.8318 43.9437 33.9188 43.5041 34.0886 43.0939C34.2584 42.6836 34.5078 42.3109 34.8223 41.9969C35.1368 41.6829 35.5104 41.4338 35.9216 41.264C36.3328 41.0942 36.7736 41.007 37.2187 41.0073H45.7039C46.1489 41.0072 46.5897 41.0946 47.0008 41.2645C47.412 41.4345 47.7854 41.6836 48.0999 41.9977C48.4143 42.3119 48.6635 42.6847 48.8331 43.095C49.0028 43.5053 49.0896 43.945 49.0886 44.3888C49.0896 44.8327 49.0028 45.2726 48.8332 45.6831C48.6636 46.0936 48.4145 46.4667 48.1001 46.7811C47.7857 47.0955 47.4123 47.345 47.0011 47.5154C46.5899 47.6858 46.1491 47.7736 45.7039 47.7739H37.2187Z" fill="#20484F"/>
</svg>

<svg width="161" height="74" fill="none" xmlns="http://www.w3.org/2000/svg"><path d="m57.574 49.39 1.592-3.693c1.72 1.283 4 1.949 6.255 1.949 1.67 0 2.717-.64 2.717-1.617-.025-2.714-9.974-.588-10.047-7.407-.025-3.46 3.05-6.13 7.408-6.13 2.59 0 5.179.643 7.026 2.107l-1.488 3.768c-1.69-1.078-3.793-1.847-5.793-1.847-1.361 0-2.255.642-2.255 1.46.025 2.665 10.047 1.205 10.15 7.717 0 3.537-2.996 6.025-7.305 6.025-3.155 0-6.054-.744-8.26-2.333v.002Zm61.004-5.026a4.581 4.581 0 0 1-2.21 1.973 4.6 4.6 0 0 1-5.43-1.425 4.576 4.576 0 0 1-.949-2.802 4.578 4.578 0 0 1 2.831-4.24 4.598 4.598 0 0 1 1.759-.35c1.715 0 3.204.95 4 2.332l4.382-2.435c-1.641-2.92-4.796-4.925-8.382-4.925-5.312 0-9.616 4.312-9.616 9.618 0 5.305 4.304 9.612 9.616 9.612a9.566 9.566 0 0 0 4.867-1.317 9.528 9.528 0 0 0 3.515-3.607l-4.383-2.433v-.001ZM75.345 24.52h5.49v26.845h-5.49V24.52Zm49.773 0v26.845h5.483v-8.05l6.516 8.05h7.026l-8.284-9.564 7.669-8.921h-6.721l-6.206 7.407V24.522h-5.484l.001-.002ZM97.141 44.418c-.795 1.308-2.437 2.277-4.284 2.277a4.601 4.601 0 0 1-3.248-1.344 4.577 4.577 0 0 1-1.34-3.241 4.572 4.572 0 0 1 1.34-3.243 4.596 4.596 0 0 1 3.248-1.348c1.847 0 3.489 1.024 4.284 2.357v4.542Zm0-11.54v2.183c-.898-1.515-3.13-2.569-5.463-2.569-4.82 0-8.613 4.259-8.613 9.589 0 5.335 3.793 9.641 8.613 9.641 2.333 0 4.565-1.053 5.463-2.562v2.181h5.489V32.879h-5.49Zm-73.488 11.51a3.383 3.383 0 0 1-4.683 3.127 3.388 3.388 0 0 1-1.833-1.833c-.17-.41-.256-.85-.255-1.294a3.367 3.367 0 0 1 .99-2.39 3.384 3.384 0 0 1 2.395-.99h3.386v3.38Zm1.69 0a3.366 3.366 0 0 1 .99-2.391 3.384 3.384 0 0 1 2.395-.99 3.394 3.394 0 0 1 2.396.99 3.375 3.375 0 0 1 .99 2.392v8.46a3.37 3.37 0 0 1-.99 2.393 3.388 3.388 0 0 1-5.782-2.393V44.387Zm3.385-13.585a3.398 3.398 0 0 1-2.397-.993 3.376 3.376 0 0 1-.989-2.394 3.366 3.366 0 0 1 .99-2.39 3.384 3.384 0 0 1 2.396-.99 3.39 3.39 0 0 1 2.396.99 3.372 3.372 0 0 1 .99 2.39v3.387h-3.386Zm0 1.72a3.393 3.393 0 0 1 2.396.99 3.373 3.373 0 0 1 .99 2.39 3.384 3.384 0 0 1-3.386 3.386h-8.485a3.394 3.394 0 0 1-3.13-2.091c-.17-.411-.257-.851-.256-1.295a3.366 3.366 0 0 1 .99-2.391 3.384 3.384 0 0 1 2.396-.99h8.485Zm13.566 3.38a3.367 3.367 0 0 1 2.088-3.123 3.393 3.393 0 0 1 4.427 1.829 3.384 3.384 0 0 1-3.13 4.68h-3.385v-3.386Zm-1.69 0a3.383 3.383 0 0 1-4.683 3.128 3.387 3.387 0 0 1-1.833-1.833c-.17-.411-.257-.851-.255-1.295v-8.487a3.366 3.366 0 0 1 .99-2.39 3.384 3.384 0 0 1 2.396-.99 3.39 3.39 0 0 1 3.129 2.087c.17.41.256.85.255 1.293v8.487Zm-3.385 13.565a3.394 3.394 0 0 1 2.396.99 3.372 3.372 0 0 1 .988 2.392 3.37 3.37 0 0 1-.988 2.392 3.389 3.389 0 0 1-5.782-2.393v-3.38h3.386Zm0-1.694a3.394 3.394 0 0 1-3.131-2.092 3.37 3.37 0 0 1-.255-1.294 3.366 3.366 0 0 1 .99-2.391 3.384 3.384 0 0 1 2.396-.99h8.485a3.394 3.394 0 0 1 2.396.99 3.373 3.373 0 0 1 .989 2.392 3.37 3.37 0 0 1-.989 2.392 3.389 3.389 0 0 1-2.396.993h-8.485Z" fill="#20484F"/></svg>
